assets/images/icons/src/qrcode.svg

<?xml version="1.0" encoding="utf-8"?>
<!-- Generated by IcoMoon.io -->
<!DOCTYPE svg PUBLIC "-//W3C//DTD SVG 1.1//EN" "http://www.w3.org/Graphics/SVG/1.1/DTD/svg11.dtd">
<svg version="1.1" xmlns="http://www.w3.org/2000/svg" xmlns:xlink="http://www.w3.org/1999/xlink" width="11" height="14" viewBox="0 0 11 14">
<path fill="#444444" d="M3 9v1h-1v-1h1zM3 3v1h-1v-1h1zM9 3v1h-1v-1h1zM1 10.992h3v-2.992h-3v2.992zM1 5h3v-3h-3v3zM7 5h3v-3h-3v3zM5 7v5h-5v-5h5zM9 11v1h-1v-1h1zM11 11v1h-1v-1h1zM11 7v3h-3v-1h-1v3h-1v-5h3v1h1v-1h1zM5 1v5h-5v-5h5zM11 1v5h-5v-5h5z"></path>
</svg>

<svg xmlns="http://www.w3.org/2000/svg" width="11" height="14" viewBox="0 0 11 14"><path fill="#444" d="M3 9v1H2V9h1zm0-6v1H2V3h1zm6 0v1H8V3h1zm-8 7.992h3V8H1v2.992zM1 5h3V2H1v3zm6 0h3V2H7v3zM5 7v5H0V7h5zm4 4v1H8v-1h1zm2 0v1h-1v-1h1zm0-4v3H8V9H7v3H6V7h3v1h1V7h1zM5 1v5H0V1h5zm6 0v5H6V1h5z"/></svg>
